!!!ONB: MCCC : IJB0065_04 : Extracted Monophonic Melody
!!!COM: Bach, Johann Sebastian
!!!OPR: Cello Suite No.3
!!!OMV: 4
!!!SCT: BWV 1009
!!!ODT: 1717///
**kern
*thru
*staff1
*IP1
*clefF4
*k[]
*C:
*M3/4
*>A
=1-
4c
8.c
16A
4B
=2
4B-
8.B-
16G
4A
=3
8D
16E
16F
8.F
16D
8E
8F
=4
16C
16BB
16C
16AA
8BB
8D
8GG
8FF
=5
4G
8.G
16E
16F#
16D
16F#
16A
=6
4c
8.c
16A
16c
16B
16A
16G
=7
8A
16B-
16c
8B-
16A
16c
8e-
8F#
=8
4G
2G
=9
*>A
4c
8.c
16A
4B
=2
4B-
8.B-
16G
4A
=3
8D
16E
16F
8.F
16D
8E
8F
=4
16C
16BB
16C
16AA
8BB
8D
8GG
8FF
=5
4G
8.G
16E
16F#
16D
16F#
16A
=6
4c
8.c
16A
16c
16B
16A
16G
=7
8A
16B-
16c
8B-
16A
16c
8e-
8F#
=8
4G
2G
=9
*>B
8D
16F
16E
8.F
16E
16D
16C
16BB
16AA
=10
8D
16F
16E
8.F
16E
16D
16C
16D
16BB
=11
16C
16E
16G#
16B
8.A
32B
32c
8D
8B
=12
8A
8F#
16A
16G#
16F#
16E
8D
16C#
16D
=13
8C#
8A
8e
16g
16f
8g
8e
=14
8c#
4B-
16A
16G
16F
16E
16G
16C#
=15
8D
8f
8G
8e
16A
16B
16d
16c#
=16
4d
2d
=17
8.F#
32G
32A
16G
16F#
16E
16F#
16G
16E
16F#
16A
=18
8.c
32d
32e
16d
16c
16B
16c
16d
16B
16c
16e
=19
8d
8BB
8C
8A
8B
8c
=20
8c
8B
8A
8B
8G
8AA
=21
8BB-
16E
16F
16G
16F
16E
16G
8F
8BB
=22
8C
16F#
16G
16A
16G
16F#
16A
16G
16d
16G
16F
=23
8E
8C
8FF
8D
8GG
16C
16BB
=24
4C
2c
=25
*>B
8D
16F
16E
8.F
16E
16D
16C
16BB
16AA
=10
8D
16F
16E
8.F
16E
16D
16C
16D
16BB
=11
16C
16E
16G#
16B
8.A
32B
32c
8D
8B
=12
8A
8F#
16A
16G#
16F#
16E
8D
16C#
16D
=13
8C#
8A
8e
16g
16f
8g
8e
=14
8c#
4B-
16A
16G
16F
16E
16G
16C#
=15
8D
8f
8G
8e
16A
16B
16d
16c#
=16
4d
2d
=17
8.F#
32G
32A
16G
16F#
16E
16F#
16G
16E
16F#
16A
=18
8.c
32d
32e
16d
16c
16B
16c
16d
16B
16c
16e
=19
8d
8BB
8C
8A
8B
8c
=20
8c
8B
8A
8B
8G
8AA
=21
8BB-
16E
16F
16G
16F
16E
16G
8F
8BB
=22
8C
16F#
16G
16A
16G
16F#
16A
16G
16d
16G
16F
=23
8E
8C
8FF
8D
8GG
16C
16BB
=24
4C
2c
==
*-
